X: 21850
T: Kirrie Kebbuck, The
R: strathspey
M: 4/4
K: Dmajor
B|(A<F)[F3/2D3/2]A/ (B<G)[G3/2B,3/2]B/|c<Ae>c (3dfe (3dcB|A<F[F3/2D3/2]A/ (B<G)G>B|(c<A)g>c {c}d2d>B|
(A<F)F>A (B<G)G>B|(c<A)e>c (3dfe (3dcB|(A<F)F>A (B<G)G>B|(3Agf (3edc {c}d2 D||
g|(f>ga3/2)f/ d<af>d|(g>ab3/2)g/ e<bg>e|(f>ga3/2)f/ d<af>d|(3.A.g.f (3.e.d.c d2d>g|
(f>ga3/2)f/ (3dag (3fed|(g>ab3/2)g/ (3eba (3gfe|f/e/d e/d/c d/c/B (A>G)|F>D {F}E>C {C}D2[DA,]||

